wp-content/themes/julialandauer/images/menu.svg

<svg width="18" height="13" viewBox="0 0 18 13" xmlns="http://www.w3.org/2000/svg"><path d="M0 0h18v3H0V0zm0 5h18v3H0V5zm0 5h18v3H0v-3z" fill="#444"/></svg>

<svg width="18px" height="13px" viewBox="0 0 18 13" version="1.1" xmlns="http://www.w3.org/2000/svg" xmlns:xlink="http://www.w3.org/1999/xlink">
    <path d="M0,0 L18,0 L18,3 L0,3 L0,0 Z M0,5 L18,5 L18,8 L0,8 L0,5 Z M0,10 L18,10 L18,13 L0,13 L0,10 Z" id="menu" fill="#444444"></path>
</svg>
